packages/kaspersky-hexa-ui-icons/src/iconsSVGs/24/Store.svg

<svg width="24" height="24" viewBox="0 0 24 24" fill="none" xmlns="http://www.w3.org/2000/svg">
<path fill-rule="evenodd" clip-rule="evenodd" d="M12 2C9.79086 2 8 3.79086 8 6L7 6C5.34315 6 4 7.34315 4 9V19C4 20.6569 5.34315 22 7 22H17C18.6569 22 20 20.6569 20 19V9C20 7.34315 18.6569 6 17 6H16C16 3.79086 14.2091 2 12 2ZM14 8V10C14 10.5523 14.4477 11 15 11C15.5523 11 16 10.5523 16 10V8H17C17.5523 8 18 8.44772 18 9V19C18 19.5523 17.5523 20 17 20H7C6.44772 20 6 19.5523 6 19V9C6 8.44772 6.44772 8 7 8H8V10C8 10.5523 8.44772 11 9 11C9.55228 11 10 10.5523 10 10V8H14ZM14 6C14 4.89543 13.1046 4 12 4C10.8954 4 10 4.89543 10 6L14 6Z" fill="black"/>
</svg>

<svg xmlns="http://www.w3.org/2000/svg" width="24" height="24" fill="none" viewBox="0 0 24 24"><path fill="#000" fill-rule="evenodd" d="M12 2C9.7909 2 8 3.7909 8 6H7C5.3431 6 4 7.3431 4 9v10c0 1.6569 1.3431 3 3 3h10c1.6569 0 3-1.3431 3-3V9c0-1.6569-1.3431-3-3-3h-1c0-2.2091-1.7909-4-4-4m2 6v2c0 .5523.4477 1 1 1s1-.4477 1-1V8h1c.5523 0 1 .4477 1 1v10c0 .5523-.4477 1-1 1H7c-.5523 0-1-.4477-1-1V9c0-.5523.4477-1 1-1h1v2c0 .5523.4477 1 1 1s1-.4477 1-1V8zm0-2c0-1.1046-.8954-2-2-2s-2 .8954-2 2z"/></svg>
